X:160
T:Spanish Minuet
M:6/8
L:1/8
Q:120
C:Trad.
R:Jig
K:G
E2 F G3 | GFE F>GA | B2 G F2 E | F2 G AGF | E2 F G3 |
GFE F>GA|B2 G F2 G|E3 E3:||:B2 B B2 G|A2 A A2 F|G2 G GFE|F2 F FGA| B2
B B2 G | ABc B2 A | GFE D2 D | E3 E3 :||
